Papirus/32x32/apps/tokodon.svg

<svg width="32" height="32" version="1.1" xmlns="http://www.w3.org/2000/svg">
 <circle transform="rotate(90)" cx="17" cy="-16" r="14" style="fill:#000304;opacity:.2"/>
 <circle transform="rotate(90)" cx="16" cy="-16" r="14" style="fill:#50beee;opacity:.98"/>
 <path d="m12.5 14c-0.894913 3.833444-2.6094395 5.104261-3.5 5.5-0.2997845 0.133215-0.4928195 0.196118-0.5 0.25-0.00772 0.05791 0.1658445 0.241299 0.5 0.25 0.816079 0.02125 2.710717-0.73716 4.5-3 2.062043-2.60779 1-3 1-3z" style="opacity:.2"/>
 <path d="m12.5 13c-0.894913 3.833444-2.6094395 5.104261-3.5 5.5-0.2997845 0.133215-0.4928195 0.196118-0.5 0.25-0.00772 0.057911 0.1658445 0.241299 0.5 0.25 0.816079 0.02125 2.710717-0.73716 4.5-3 2.062043-2.60779 1-3 1-3z" style="fill:#e4e4e4"/>
 <path d="m19.5 14c0.871423 3.732799 2.701044 5.077752 3.5 5.5 0.297741 0.157356 0.492259 0.191916 0.5 0.25 0.0078 0.05853-0.16985 0.242795-0.5 0.25-0.794281 0.01733-2.718545-0.74706-4.5-3-2.062043-2.607789-1-3-1-3z" style="opacity:.2"/>
 <path d="m19.5 13c0.871423 3.732799 2.701044 5.077752 3.5 5.5 0.297741 0.157356 0.492259 0.191916 0.5 0.25 0.0078 0.05853-0.16985 0.242795-0.5 0.25-0.794281 0.01733-2.718545-0.74706-4.5-3-2.062043-2.607789-1-3-1-3z" style="fill:#e4e4e4"/>
 <path d="m 21,9 c 1.5,0 3,1.5 3,3 v 2.5 C 24,15.24403 23.288508,16 22.5,16 H 19 L 18.9952,18.047665 19,20.5 c 0.0013,0.628138 0.139017,1.072581 0.139017,1.072581 0.326582,0.725673 0.895845,1.521785 1.880389,1.62897 0.49507,0.05389 1.267429,-0.171254 1.404721,-0.319563 C 22.502571,22.797249 22.5,22.638841 22.5,22.5 c 0,-0.249812 0,-0.5 0.5,-0.5 0.06657,0 0.158571,0.01767 0.243302,0.03088 0.183729,0.02864 0.26082,0.08105 0.256698,0.21912 -0.008,0.269224 -0.283228,0.710856 -0.387129,0.863225 C 23.708354,23.21755 24,23.229921 24,23.5 24,23.782563 23.856505,24 23.5,24 23.255052,24 23.218264,23.819488 22.845401,23.938468 21.861707,24.252364 21,25 18,25 16.5,25 14.194345,23.400032 13.5,22 13.004182,21.000266 13.019639,19.545802 13.012415,18.057572 L 13,16 H 11 C 9.5,16 8.0029467,14.500001 8.001826,12.978686 L 8,10.5 C 8,9.769801 8.799013,9 9.5,9 Z" style="opacity:.2"/>
 <path d="m 21,8 c 1.5,0 3,1.5 3,3 v 2.5 C 24,14.24403 23.288508,15 22.5,15 H 19 L 18.9952,17.047665 19,19.5 c 0.0013,0.628138 0.139017,1.072581 0.139017,1.072581 0.326582,0.725673 0.895845,1.521785 1.880389,1.62897 0.49507,0.05389 1.267429,-0.171254 1.404721,-0.319563 C 22.502571,21.797249 22.5,21.638841 22.5,21.5 c 0,-0.249812 0,-0.5 0.5,-0.5 0.06657,0 0.158571,0.01767 0.243302,0.03088 0.183729,0.02864 0.26082,0.08105 0.256698,0.21912 -0.008,0.269224 -0.283228,0.710856 -0.387129,0.863225 C 23.708354,22.21755 24,22.229921 24,22.5 24,22.782563 23.856505,23 23.5,23 23.255052,23 23.218264,22.819488 22.845401,22.938468 21.861707,23.252364 21,24 18,24 16.5,24 14.194345,22.400032 13.5,21 13.004182,20.000266 13.019639,18.545802 13.012415,17.057572 L 13,15 H 11 C 9.5,15 8.0029467,13.500001 8.001826,11.978686 L 8,9.5 C 8,8.769801 8.799013,8 9.5,8 Z" style="fill:#4f4f4d"/>
 <ellipse transform="matrix(.5593716 -.82891701 .89658382 .44287408 0 0)" cx="-2.812799" cy="21.831087" rx="1.1125714" ry=".87303197" style="fill:#e4e4e4;opacity:.98"/>
 <ellipse transform="matrix(-.55937162 -.828917 -.89658383 .44287407 0 0)" cx="-17.114561" cy="-4.9371848" rx="1.1125715" ry=".87303191" style="fill:#e4e4e4;opacity:.98"/>
 <path d="M 16,2 C 8.244,2 2,8.244 2,16 2,16.056725 2.00564,16.112057 2.00879,16.167969 2.1845605,8.5670905 8.355364,3 16,3 23.644636,3 29.815439,8.5670905 29.991211,16.167969 29.99436,16.112057 30,16.056725 30,16 30,8.244 23.756,2 16,2 Z" style="fill:#ffffff;opacity:.2"/>
</svg>

<svg xmlns="http://www.w3.org/2000/svg" width="32" height="32" version="1.1">
 <circle style="opacity:0.2" cx="16" cy="17" r="14"/>
 <circle style="fill:#50beee" cx="16" cy="16" r="14"/>
 <path style="opacity:0.2" d="M 19.5,14 C 20.371,17.733 22.201,19.078 23,19.5 23.298,19.657 23.492,19.692 23.5,19.75 23.508,19.809 23.33,19.993 23,20 22.206,20.017 20.281,19.253 18.5,17 16.438,14.392 17.5,14 17.5,14 Z M 12.5,14 C 11.605,17.833 9.8906,19.104 9,19.5 8.7002,19.633 8.5072,19.696 8.5,19.75 8.4923,19.808 8.6658,19.991 9,20 9.8161,20.021 11.711,19.263 13.5,17 15.562,14.392 14.5,14 14.5,14 Z"/>
 <path style="fill:#e4e4e4" d="M 19.5,13 C 20.371,16.733 22.201,18.078 23,18.5 23.298,18.657 23.492,18.692 23.5,18.75 23.508,18.809 23.33,18.993 23,19 22.206,19.017 20.281,18.253 18.5,16 16.438,13.392 17.5,13 17.5,13 Z M 12.5,13 C 11.605,16.833 9.8906,18.104 9,18.5 8.7002,18.633 8.5072,18.696 8.5,18.75 8.4923,18.808 8.6658,18.991 9,19 9.8161,19.021 11.711,18.263 13.5,16 15.562,13.392 14.5,13 14.5,13 Z"/>
 <path style="opacity:0.2" d="M 21,9 C 22.5,9 24,10.5 24,12 V 14.5 C 24,15.244 23.289,16 22.5,16 H 19 L 18.995,18.048 19,20.5 C 19.001,21.128 19.139,21.573 19.139,21.573 19.466,22.298 20.035,23.094 21.019,23.202 21.514,23.255 22.287,23.03 22.424,22.882 22.503,22.797 22.5,22.639 22.5,22.5 22.5,22.25 22.5,22 23,22 23.067,22 23.159,22.018 23.243,22.031 23.427,22.06 23.504,22.112 23.5,22.25 23.492,22.519 23.217,22.961 23.113,23.113 23.708,23.218 24,23.23 24,23.5 24,23.783 23.857,24 23.5,24 23.255,24 23.218,23.819 22.845,23.938 21.862,24.252 21,25 18,25 16.5,25 14.194,23.4 13.5,22 13.004,21 13.02,19.546 13.012,18.058 L 13,16 H 11 C 9.5,16 8.0029,14.5 8.0018,12.979 L 8,10.5 C 8,9.7698 8.799,9 9.5,9 Z"/>
 <path style="fill:#4f4f4d" d="M 21,8 C 22.5,8 24,9.5 24,11 V 13.5 C 24,14.244 23.289,15 22.5,15 H 19 L 18.995,17.048 19,19.5 C 19.001,20.128 19.139,20.573 19.139,20.573 19.466,21.298 20.035,22.094 21.019,22.202 21.514,22.255 22.287,22.03 22.424,21.882 22.503,21.797 22.5,21.639 22.5,21.5 22.5,21.25 22.5,21 23,21 23.067,21 23.159,21.018 23.243,21.031 23.427,21.06 23.504,21.112 23.5,21.25 23.492,21.519 23.217,21.961 23.113,22.113 23.708,22.218 24,22.23 24,22.5 24,22.783 23.857,23 23.5,23 23.255,23 23.218,22.819 22.845,22.938 21.862,23.252 21,24 18,24 16.5,24 14.194,22.4 13.5,21 13.004,20 13.02,18.546 13.012,17.058 L 13,15 H 11 C 9.5,15 8.0029,13.5 8.0018,11.979 L 8,9.5 C 8,8.7698 8.799,8 9.5,8 Z"/>
 <ellipse style="opacity:0.1" cx="-3.718" cy="22.396" rx="1.113" ry=".873" transform="matrix(0.55937,-0.82892,0.89658,0.44287,0,0)"/>
 <ellipse style="fill:#e4e4e4" cx="-2.813" cy="21.831" rx="1.113" ry=".873" transform="matrix(.5593716 -.82891701 .89658382 .44287408 0 0)"/>
 <ellipse style="opacity:0.1" cx="-18.019" cy="-4.373" rx="1.113" ry=".873" transform="matrix(-0.55937,-0.82892,-0.89658,0.44287,0,0)"/>
 <ellipse style="fill:#e4e4e4" cx="-17.115" cy="-4.937" rx="1.113" ry=".873" transform="matrix(-.55937162 -.828917 -.89658383 .44287407 0 0)"/>
 <path style="fill:#ffffff;opacity:0.2" d="M 16,2 C 8.244,2 2,8.244 2,16 2,16.056725 2.00564,16.112057 2.00879,16.167969 2.1845605,8.5670905 8.355364,3 16,3 23.644636,3 29.815439,8.5670905 29.991211,16.167969 29.99436,16.112057 30,16.056725 30,16 30,8.244 23.756,2 16,2 Z"/>
 <path style="fill:#ffffff;opacity:0.1" d="M 9.5,8 C 8.799,8 8,8.7698 8,9.5 V 10.488 C 8.0084,9.7616 8.8027,9 9.5,9 H 21 C 22.5,9 24,10.5 24,12 V 11 C 24,9.5 22.5,8 21,8 Z"/>
</svg>
